image/buisnes-icon1.svg

<svg width="64" height="64" viewBox="0 0 64 64" fill="none" xmlns="http://www.w3.org/2000/svg">
<path d="M31.843 42.2526C42.1523 42.2526 50.5096 34.5849 50.5096 25.1263C50.5096 15.6677 42.1523 8 31.843 8C21.5336 8 13.1763 15.6677 13.1763 25.1263C13.1763 34.5849 21.5336 42.2526 31.843 42.2526Z" stroke="#E03D3B" stroke-width="2" stroke-linecap="round" stroke-linejoin="round"/>
<path d="M21.7359 39.5367L18.5093 61.8253L31.8426 54.4855L45.176 61.8253L41.9493 39.5122" stroke="#E03D3B" stroke-width="2" stroke-linecap="round" stroke-linejoin="round"/>
<path d="M25.7419 32.1261H22.8968C22.3937 32.1261 21.9113 31.9457 21.5555 31.6245C21.1998 31.3033 21 30.8677 21 30.4135V24.4194C21 23.9651 21.1998 23.5295 21.5555 23.2084C21.9113 22.8872 22.3937 22.7067 22.8968 22.7067H25.7419M32.3806 20.9941V17.5689C32.3806 16.8876 32.0808 16.2342 31.5472 15.7524C31.0137 15.2707 30.29 15 29.5354 15L25.7419 22.7067V32.1261H36.4396C36.8971 32.1308 37.3409 31.986 37.6895 31.7185C38.0381 31.451 38.2678 31.0788 38.3364 30.6704L39.6451 22.9636C39.6864 22.7182 39.6681 22.4676 39.5914 22.2291C39.5148 21.9907 39.3816 21.7702 39.2012 21.5829C39.0207 21.3955 38.7974 21.2458 38.5465 21.1442C38.2957 21.0425 38.0233 20.9913 37.7484 20.9941H32.3806Z" stroke="#E03D3B" stroke-width="2" stroke-linecap="round" stroke-linejoin="round"/>
</svg>

<?xml version="1.0" encoding="UTF-8" standalone="no"?>
<svg width="64" xmlns="http://www.w3.org/2000/svg" fill="none" viewBox="0 0 64 64" height="64">
 <path stroke-linejoin="round" stroke="#E03D3B" stroke-width="2" stroke-linecap="round" d="m31.843 42.253c10.309 0 18.667-7.668 18.667-17.127 0-9.458-8.358-17.126-18.667-17.126s-18.667 7.668-18.667 17.126c0 9.459 8.358 17.127 18.667 17.127z"/>
 <path stroke-linejoin="round" stroke="#E03D3B" stroke-width="2" stroke-linecap="round" d="m21.736 39.537l-3.227 22.288 13.334-7.339 13.333 7.339-3.227-22.313"/>
 <path stroke-linejoin="round" stroke="#E03D3B" stroke-width="2" stroke-linecap="round" d="m25.742 32.126h-2.845c-0.503 0-0.986-0.18-1.341-0.502-0.356-0.321-0.556-0.756-0.556-1.21v-5.995c0-0.454 0.2-0.889 0.556-1.211 0.355-0.321 0.838-0.501 1.341-0.501h2.845m6.639-1.713v-3.425c0-0.681-0.3-1.335-0.834-1.817-0.533-0.481-1.257-0.752-2.012-0.752l-3.793 7.707v9.419h10.698c0.457 0.005 0.901-0.14 1.25-0.408 0.348-0.267 0.578-0.639 0.646-1.048l1.309-7.706c0.041-0.246 0.023-0.496-0.054-0.735-0.076-0.238-0.209-0.459-0.39-0.646-0.18-0.187-0.404-0.337-0.655-0.439-0.25-0.102-0.523-0.153-0.798-0.15h-5.367z"/>
</svg>
